X: 32991
T: Pretty Little Mary
R: reel
M: 4/4
K: Adorian
|:BddB G2G2|BddB G2GA|B2e2 eged|1 B2A2 A4:|2 B2A2 A2ef||
|:g2eg f2f2|efed BABd|e2ef gfed|1 B2A2 A2ef:|2 B2A2 A4||

